app/assets/images/icons/fullscreen.svg

<svg width="20px" height="20px" viewBox="0 0 20 20" version="1.1" xmlns="http://www.w3.org/2000/svg" xmlns:xlink="http://www.w3.org/1999/xlink" xmlns:sketch="http://www.bohemiancoding.com/sketch/ns">
    <!-- Generator: Sketch 3.3.2 (12043) - http://www.bohemiancoding.com/sketch -->
    <title>Fullscreen</title>
    <desc>Created with Sketch.</desc>
    <defs></defs>
    <g id="Page-1" stroke="none" stroke-width="1" fill="none" fill-rule="evenodd" sketch:type="MSPage">
        <g id="Fullscreen-Icon" sketch:type="MSArtboardGroup" transform="translate(-14.000000, -14.000000)">
            <g id="Fullscreen" sketch:type="MSLayerGroup" transform="translate(14.000000, 14.000000)">
                <rect id="Rectangle-471" sketch:type="MSShapeGroup" x="0" y="0" width="20" height="20"></rect>
                <path d="M18,3.41421356 L18,9.00460243 C18,9.5443356 18.4477153,10 19,10 C19.5561352,10 20,9.55434533 20,9.00460243 L20,0.995397568 C20,0.726280621 19.8886922,0.478064267 19.7086132,0.296811948 C19.526952,0.110355663 19.2787167,2.53203766e-15 19.0046024,2.48168369e-15 L10.9953976,1.01041663e-15 C10.4556644,9.11269252e-16 10,0.44771525 10,1 C10,1.55613518 10.4456547,2 10.9953976,2 L16.5857864,2 L11.4612117,7.12457475 C11.0795627,7.50622374 11.0739418,8.14500961 11.4644661,8.53553391 C11.857713,8.92878086 12.4866983,8.92751525 12.8754252,8.53878832 L18,3.41421356 Z M2,16.5857864 L2,10.9953976 C2,10.4556644 1.55228475,10 1,10 C0.443864822,10 0,10.4456547 0,10.9953976 L0,19.0046024 C0,19.2737194 0.111307841,19.5219357 0.291386762,19.7031881 C0.473047997,19.8896443 0.721283342,20 0.995397568,20 L9.00460243,20 C9.5443356,20 10,19.5522847 10,19 C10,18.4438648 9.55434533,18 9.00460243,18 L3.41421356,18 L8.53878832,12.8754252 C8.9204373,12.4937763 8.9260582,11.8549904 8.53553391,11.4644661 C8.14228695,11.0712191 7.51330168,11.0724848 7.12457475,11.4612117 L2,16.5857864 L2,16.5857864 Z" id="Rectangle-430" fill="#6E6E6E" sketch:type="MSShapeGroup"></path>
            </g>
        </g>
    </g>
</svg>

<!-- Generator: Adobe Illustrator 18.1.1, SVG Export Plug-In . SVG Version: 6.00 Build 0)  -->
<svg version="1.1" id="Ebene_1" xmlns="http://www.w3.org/2000/svg" xmlns:xlink="http://www.w3.org/1999/xlink" x="0px" y="0px"
	 viewBox="0 0 20 20" enable-background="new 0 0 20 20" xml:space="preserve">
<path fill="#444444" d="M18,3.4V9c0,0.5,0.4,1,1,1c0.6,0,1-0.4,1-1V1c0-0.3-0.1-0.5-0.3-0.7C19.5,0.1,19.3,0,19,0h-8
	c-0.5,0-1,0.4-1,1c0,0.6,0.4,1,1,1h5.6l-5.1,5.1c-0.4,0.4-0.4,1,0,1.4c0.4,0.4,1,0.4,1.4,0L18,3.4L18,3.4z M2,16.6V11
	c0-0.5-0.4-1-1-1c-0.6,0-1,0.4-1,1v8c0,0.3,0.1,0.5,0.3,0.7C0.5,19.9,0.7,20,1,20h8c0.5,0,1-0.4,1-1c0-0.6-0.4-1-1-1H3.4l5.1-5.1
	c0.4-0.4,0.4-1,0-1.4c-0.4-0.4-1-0.4-1.4,0L2,16.6L2,16.6z"/>
</svg>
